X:1
T:Title
%%score { 1 | ( 2 3 ) }
L:1/8
M:4/4
K:F
V:1 treble nm="Grand Piano"
V:2 bass 
V:3 bass 
V:1
 z4 z2[Q:1/4=100] C>F | A2 G>F C2 FG | F2 ED [G,CE]4 | [B,EG][B,EG][B,EG][A,EA] [Ec]2 [EG]2 | %4
 [GB]4 A2 AA | A2 GA c2 AG | [DF]2 [B,D]2 [DB]4 | AGFA c2 A2 |[M:3/4] [EG]4 F2 |[M:1/4] cc | %10
[M:4/4] [Ec]2 [Ec][EB] [EG]2 F[EG] | A2 AB c2 cc | =B2 BA G2 Bc | d2 ed [Ec]2 [Ec][EB] | %14
 A2 AB c2 AG | [DF]2 [DF][B,D] [DB]4 | Acdc [EB]2 [CE]2 |[M:7/8] [EG]- [EG]3 F3 |] %18
V:2
 z4 z2 [F,A,]>[F,A,C] | [F,CF]2 [F,B,E]>[F,A,C] [F,A,]2 [F,A,C][F,B,C] | [C,A,C]2 G,F, C,4 | %3
 C,C,C,C, [C,G,]2 [C,C]2 | [F,C]4 [F,CF]2 [F,CF][F,CF] | %5
 [F,CF]2 [F,=B,F][F,CF] [F,A,F]2 [F,C_E][F,A,E] | [B,,B,]2 [B,,F,]2 [B,,F,]4 | %7
 [F,C][F,B,C][F,A,C][F,CF] [F,A,F]2 [F,CF]2 |[M:3/4] [C,B,]4 [F,A,]2 |[M:1/4] [F,A,F][F,A,F] | %10
[M:4/4] [C,G,]2 [C,G,][C,G,] [C,B,]2 [C,A,][C,C] | [F,CF]2 [F,CF][G,CE] [A,CF]2 [A,CF][A,CF] | %12
 [G,DF]2 [G,DF][G,CF] [G,=B,F]2 [G,DF][G,A,F] | %13
 [G,=B,F]2 [G,B,F][G,B,F][K:bass] [C,C]2 [C,C][C,C] | %14
 [F,CF]2 [F,CF][K:treble][G,CE] [A,CF]2[K:bass] [F,C_E][F,A,E] | [B,,B,]2 [B,,B,][B,,F,] [B,,F,]4 | %16
 [F,C][F,A,F][F,B,F][F,A,F] [C,G,]2 [C,B,]2 |[M:7/8] [C,B,]- [C,B,]3 [F,A,]3 |] %18
V:3
 x8 | x8 | z2 [C,C]2 z4 | x8 | x8 | x8 | x8 | x8 |[M:3/4] x6 |[M:1/4] x2 |[M:4/4] x8 | x8 | x8 | %13
 x4[K:bass] x4 | x3[K:treble] x3[K:bass] x2 | x8 | x8 |[M:7/8] x7 |] %18

